public/iconset/Iphone.svg

<?xml version="1.0" encoding="UTF-8"?>
<svg width="24px" height="24px" viewBox="0 0 24 24" version="1.1" xmlns="http://www.w3.org/2000/svg" xmlns:xlink="http://www.w3.org/1999/xlink">
    <!-- Generator: Sketch 48.1 (47250) - http://www.bohemiancoding.com/sketch -->
    <title>24x24</title>
    <desc>Created with Sketch.</desc>
    <defs></defs>
    <g id="Page-1" stroke="none" stroke-width="1" fill="none" fill-rule="evenodd">
        <g id="Iphone">
            <rect id="24x24" x="0" y="0" width="24" height="24"></rect>
            <path d="M12,15 C11.4477153,15 11,15.4477153 11,16 C11,16.5522847 11.4477153,17 12,17 C12.5522847,17 13,16.5522847 13,16 C13,15.4477153 12.5522847,15 12,15 Z M15.5,5 L8.5,5 C7.67157288,5 7,5.67157288 7,6.5 L7,17.5 C7,18.3284271 7.67157288,19 8.5,19 L15.5,19 C16.3284271,19 17,18.3284271 17,17.5 L17,6.5 C17,5.67157288 16.3284271,5 15.5,5 Z M16,17.5 C16,17.7761424 15.7761424,18 15.5,18 L8.5,18 C8.22385763,18 8,17.7761424 8,17.5 L8,6.5 C8,6.22385763 8.22385763,6 8.5,6 L15.5,6 C15.7761424,6 16,6.22385763 16,6.5 L16,17.5 Z" id="Shape" fill="#000000" fill-rule="nonzero"></path>
        </g>
    </g>
</svg>

<svg id="target" xmlns="http://www.w3.org/2000/svg" viewBox="0 0 24 24"><title>Iphone</title><path d="M15.5,5h-7A1.5,1.5,0,0,0,7,6.5v11A1.5,1.5,0,0,0,8.5,19h7A1.5,1.5,0,0,0,17,17.5V6.5A1.5,1.5,0,0,0,15.5,5ZM16,17.5a.5.5,0,0,1-.5.5h-7a.5.5,0,0,1-.5-.5V6.5A.5.5,0,0,1,8.5,6h7a.5.5,0,0,1,.5.5Z"/><path d="M12,15a1,1,0,1,0,1,1A1,1,0,0,0,12,15Z"/></svg>
